X:1
T:Государственный гимн России
T:Государственный гимн России
T:Партитура для фортепиано
T:Музыка А. Александрова
T:Слова С. Михалкова
T:Фортепиано
T: Музыкальная редакция П. Овсянникова 
T:Aранжировка P. Njeim
C:Александр Васильевич Александров
Z:Сергей Владимирович Михалков
%%score { ( 1 3 ) | ( 2 4 ) }
L:1/8
Q:1/4=76
M:2/4
K:C
V:1 treble nm="Piano" snm="Pno."
V:3 treble 
V:2 bass 
V:4 bass 
V:1
"^Торжественно. Распевно \n\n"!f! [CEGc]4- | [CEGc]2 z G |: [CEGc]2 (G>A) | [B,EGB]2 EE | %4
 A2 (G>F) | [G,CG]2 CC | [F,A,D]2 (D>E) | [A,DF]2"_cresc." ([A,DF]>[A,EG]) | [A,FA]2 [B,GB][CGAc] | %9
 d3 G |"^1" [EGce]2 ([Dd]>[CAc]) | [DGBd]2 BG | [CEAc]2 ([B,B]>[A,^FA]) | [B,EGB]2 EE | %14
 [A,CA]2 (G>=F) | G2 (C>C) | [C^Fc]2 ([CEB]>[CFA]) | [B,G]!<(![B,GB] [CAc][DBd]!<)! | %18
[M:4/4]!ff!"^2" [EGce]4 ([DBd][CAc]) [B,GB][CAc] | ([DGBd]3 [B,DG]) [B,DG][B,GB][CAc][DBd] | %20
 [CEAc]4 ([B,GB][A,^FA]) [G,EG][A,FA] | ([B,EGB]3 [G,B,E]) [G,B,E]!>(![G,EG][A,CFA][B,GB]!>)! | %22
 [Ac]2 [FA]>[GB]"_cresc." [Ac]2 [FA]>[GB] | [CAc]2 [CFA][CAc] [FAcf]4 |"^3"!ff! f4 (ed) [Ac][GBd] | %25
 [EGce]3 [EGc] [EGc]4 | d4 (cB) [^FA][E^GB] | [CEAc]3 [CEA] [CEA]4 |1,2 %28
 [Ac]2 [GB]>[FA] [G,CG]2 C>C | [C^Fc]2 [CEB]>[CFA]!>(! [B,G-]2 G!>)!!f!G :|3 %30
 [Ac]2 [GB]>[FA] [G,CG]2 C>C | [G,B,=FG]4"^rit."!<(! [A,CGA]2 [B,FGB]2!<)! | %32
 [CEGc]4- [CEGc] z2 z |] %33
V:2
 !///-!C,,2 C,2 | [C,,,C,,]2 z2 |: [C,,C,]2 [C,,C,]2 | [E,,E,]2 [E,,E,]2 | [F,,F,]2 [F,,F,]2 | %5
 [E,,E,]2 [E,,E,]2 | [D,,D,]2 [D,,D,]2 | [C,,C,]4- | [C,,C,][C,,C,] [B,,,B,,][A,,,A,,] | %9
 [G,,,G,,][F,,F,] [E,,E,][D,,D,] | [C,,C,]2 [E,,E,]2 | G,D, B,,G,, | [A,,,A,,]2 [C,,C,]2 | %13
 E,B,, G,,E,, | [F,,F,]2 [D,,D,]2 | [E,,E,]2 [E,,E,]2 | [D,,D,]2 [D,,D,]2 | %17
 [G,,G,][=F,,=F,] [E,,E,][D,,D,] |[M:4/4] [C,,C,][B,,,B,,][C,,C,][D,,D,] [E,,E,]2 [E,,E,]2 | %19
 G,4- G,2 [F,,F,][E,,E,] | A,,,2 [A,,,A,,][B,,,B,,] [C,,C,]2 [C,,C,]2 | %21
 E,4- [E,,E,][E,,E,][D,,D,][G,,,G,,] | !>![F,,,F,,]3 [C,,C,] !>![A,,A,]2- [A,,A,][G,,G,] | %23
 !>![F,,F,]3 [C,,C,] [A,,A,][G,,G,][F,,F,][E,,E,] | %24
 !>![D,,D,]3 [E,,E,]/[F,,F,]/ [G,,G,]2 [G,,,G,,]2 | %25
 [C,,C,][B,,,B,,][C,,C,][E,,E,] [D,,D,][C,,C,][B,,,B,,][A,,,A,,] | %26
 [B,,,B,,]3 [C,,C,]/[D,,D,]/ [E,,E,]2 [E,,E,]2 | %27
 [A,,,A,,][B,,,B,,][C,,C,][E,,E,] [A,,A,]2 [G,,G,]2 |1,2 [F,,F,]2 [D,,D,]2 [E,,E,]2 [E,,E,]2 | %29
 [D,,D,]2 [D,,D,]2 [G,,G,]2 [G,,,G,,]2 :|3 [F,,F,]2 [D,,D,]2 [E,,E,]2 [E,,E,]2 | %31
 [G,,,G,,]4 [G,,,G,,]2 [G,,,G,,]2 | [C,,C,]4- [C,,C,] z2 z |] %33
V:3
 x4 | x4 |: x2 [CE]2 | x2 [G,B,]2 | [A,C]2 [A,C]2 | x2 G,2 | x2 [F,A,]2 | x4 | x4 | [DGB]4 | %10
 x2 G2 | x2 [B,D]2 | x2 E2 | x2 [G,B,]2 | x2 [A,C]2 | [G,C]2 G,2 | x4 | G2 x2 |[M:4/4] x8 | x8 | %20
 x8 | x8 | C2 C2 C2 C2 | x8 | [FAc]2 [FAc]2 [GB]2 F2 | x8 | [DFA]2 [DFA]2 [E^G]2 D2 | x8 |1,2 %28
 C4 x2 G,2 | x6 [B,=F]2 :|3 C4 x2 G,2 | x8 | x8 |] %33
V:4
 x4 | x4 |: x4 | x4 | x4 | x4 | x4 | x4 | x4 | x4 | x4 | G,,3 G,, | x4 | E,,3 E,, | x4 | x4 | x4 | %17
 x4 |[M:4/4] x8 | G,,G,,B,,D, G,,2 x2 | A,,E,, z4 x2 | E,,E,,G,,B,, x4 | x8 | x8 | x8 | x8 | x8 | %27
 x8 |1,2 x8 | x8 :|3 x8 | x8 | x8 |] %33

